assets/home-tab/Asset/smartbuy.svg

<svg width="87" height="22" viewBox="0 0 87 22" fill="none" xmlns="http://www.w3.org/2000/svg">
<g clip-path="url(#clip0_181_214)">
<path d="M50.2409 5.92999H52.8957C53.0108 4.69785 53.464 3.5237 54.205 2.53074C54.4856 2.19734 54.8885 1.9944 55.3202 1.97266C55.7518 1.98715 56.1619 2.15385 56.4713 2.45102C57.349 3.41498 57.9389 4.60363 58.1763 5.8865H60.7951L62.1476 17.686L49.7517 18.1644L50.2697 5.92999H50.2409ZM53.3345 5.92999H57.8238C57.6008 4.75584 57.0612 3.66141 56.2698 2.76992C56.0468 2.52349 55.7302 2.38578 55.3993 2.37129C55.0756 2.40028 54.7734 2.55973 54.5648 2.81341C54.0108 3.32801 53.5719 4.3717 53.3345 5.92999Z" fill="#004A8F"/>
<path d="M61.2591 5.05273L72.7702 7.13287C72.0507 11.1699 71.2162 15.8883 70.7054 18.7295L59.2087 16.6493C59.7195 13.8082 60.5397 9.0898 61.2591 5.05273Z" fill="#ED1C24"/>
<path d="M81.9196 6.29291H79.38C79.4879 6.04648 79.6534 5.8218 79.8548 5.64785C80.049 5.4884 80.2865 5.37968 80.5311 5.32894C80.6246 5.53913 80.7613 5.72758 80.9268 5.88703L84.524 4.93031C84.0563 4.27075 83.8693 3.45175 84.006 2.65448L80.4088 3.9301C80.3296 4.25626 80.3296 4.60416 80.4088 4.93031C80.121 5.00279 79.8476 5.1405 79.6102 5.32894C79.4303 5.4739 79.2864 5.64785 79.1785 5.85079V5.126C79.1785 4.92306 79.0202 4.76361 78.8188 4.76361H75.2216C75.0274 4.76361 74.8691 4.92306 74.8691 5.11876V6.32915H72.128C71.6316 6.31465 71.2143 6.70604 71.2 7.20614V17.085C71.2 17.6141 71.6244 18.0345 72.1496 18.049H81.9196C82.4304 18.0272 82.8405 17.6068 82.8477 17.085V7.22788C82.8261 6.72053 82.4232 6.31465 81.9196 6.29291ZM78.5814 6.37264H75.4087V5.69134C75.4015 5.56812 75.495 5.4594 75.6173 5.45216C75.6245 5.45216 75.6389 5.45216 75.6461 5.45216H78.344C78.4735 5.45216 78.5742 5.56087 78.5814 5.69134V6.37264Z" fill="#004A8F"/>
<path d="M55.6877 12.9149H54.9683V14.1905H55.9611C56.6014 14.1905 56.9179 13.9948 56.9179 13.5527C56.9323 13.3063 56.7884 13.0816 56.5582 12.9946C56.2704 12.9366 55.9827 12.9076 55.6877 12.9149ZM55.7668 10.5158H54.9683V11.6755H55.882C56.4 11.6755 56.6014 11.4726 56.6014 11.0739C56.6302 10.871 56.5151 10.6753 56.328 10.5956C56.1338 10.5303 55.9323 10.5086 55.7309 10.5158H55.7668ZM56.0402 15.7923H52.7092V8.91406H55.9611C57.7885 8.91406 58.7022 9.47215 58.7022 10.6318C58.7022 11.2406 58.3712 11.7987 57.8316 12.0814C58.1698 12.1611 58.4647 12.3568 58.6662 12.6395C58.8676 12.9366 58.9755 13.2845 58.9827 13.6397C58.9827 15.0892 58.0259 15.7633 56.0402 15.7633V15.7923Z" fill="white"/>
<path d="M62.6721 12.7922V8.91458H64.8952V13.0314C64.8808 13.3358 64.9455 13.6402 65.0894 13.9156C65.2981 14.1765 65.6362 14.3142 65.9671 14.2708C66.6866 14.2708 66.9959 13.8286 66.9959 12.9951V8.87109H69.219V12.7487C69.2981 13.6257 69.0104 14.5027 68.4276 15.155C66.9312 16.1335 65.0031 16.1335 63.5067 15.155C62.9455 14.7129 62.6721 13.9156 62.6721 12.756V12.7922Z" fill="white"/>
<path d="M77.5642 13.27V15.7923H75.3411V13.3135L72.8015 8.91406H75.3052L76.4491 11.2696L77.6433 8.91406H80.1038L77.5642 13.27Z" fill="white"/>
</g>
<path d="M5.37381 17.3508C4.40429 17.3508 3.55921 17.2057 2.83855 16.9153C2.12308 16.6198 1.56574 16.1765 1.16653 15.5855C0.772501 14.9945 0.567711 14.2557 0.552157 13.3691H3.19629C3.21703 13.7424 3.31813 14.0561 3.49959 14.3101C3.68105 14.5641 3.92991 14.756 4.24617 14.8856C4.56242 15.0152 4.92794 15.08 5.3427 15.08C5.72636 15.08 6.05558 15.0282 6.33036 14.9245C6.61033 14.8208 6.8229 14.6756 6.96807 14.489C7.11842 14.2971 7.19359 14.0794 7.19359 13.8357C7.19359 13.6128 7.1262 13.4235 6.9914 13.268C6.8566 13.1073 6.64921 12.9673 6.36925 12.848C6.08928 12.7288 5.73414 12.6225 5.30382 12.5292L4.09063 12.2492C3.07445 12.0211 2.27862 11.6478 1.70313 11.1294C1.13283 10.6057 0.847678 9.9084 0.847678 9.03739C0.847678 8.31673 1.0421 7.6894 1.43094 7.15539C1.81979 6.61619 2.3538 6.19883 3.03298 5.90331C3.71215 5.60261 4.48984 5.45226 5.36603 5.45226C6.26815 5.45226 7.04843 5.60261 7.70687 5.90331C8.36531 6.20402 8.87599 6.62915 9.23891 7.17872C9.60701 7.7231 9.79625 8.35821 9.80662 9.08405H7.17026C7.13397 8.65373 6.96029 8.31932 6.64921 8.08083C6.34332 7.84234 5.9156 7.7231 5.36603 7.7231C5.00311 7.7231 4.69463 7.77235 4.44059 7.87086C4.19173 7.96418 4.00249 8.09898 3.87288 8.27525C3.74845 8.44635 3.68623 8.64077 3.68623 8.85852C3.68623 9.09183 3.75622 9.28884 3.89621 9.44956C4.03619 9.61028 4.2358 9.74767 4.49502 9.86173C4.75425 9.97061 5.06014 10.0639 5.41269 10.1417L6.41591 10.3672C6.98621 10.4917 7.49171 10.6576 7.9324 10.8649C8.37309 11.0671 8.74378 11.3108 9.04449 11.596C9.35038 11.8759 9.58109 12.2026 9.73663 12.5759C9.89216 12.944 9.96993 13.3587 9.96993 13.8202C9.96993 14.5564 9.78588 15.1889 9.41778 15.7177C9.05486 16.2465 8.53121 16.6509 7.84685 16.9309C7.16249 17.2109 6.33814 17.3508 5.37381 17.3508ZM11.4087 17.1953V8.55522H13.9128L14.0528 10.7716H13.8661C14.0061 10.2169 14.2083 9.76841 14.4727 9.42623C14.7371 9.07886 15.0482 8.82482 15.406 8.6641C15.7637 8.50338 16.137 8.42302 16.5258 8.42302C17.148 8.42302 17.6535 8.62262 18.0423 9.02183C18.4363 9.41586 18.7319 10.0562 18.9289 10.9427H18.6334C18.763 10.3517 18.9781 9.8721 19.2788 9.504C19.5795 9.13071 19.9295 8.85852 20.3287 8.68743C20.7331 8.51115 21.1531 8.42302 21.5886 8.42302C22.1329 8.42302 22.6125 8.54226 23.0273 8.78075C23.4472 9.01924 23.7765 9.35883 24.0149 9.79952C24.2534 10.235 24.3727 10.7587 24.3727 11.3704V17.1953H21.6663V11.9848C21.6663 11.5441 21.5497 11.2097 21.3164 10.9816C21.0882 10.7535 20.7953 10.6394 20.4376 10.6394C20.1835 10.6394 19.9632 10.6965 19.7766 10.8105C19.5899 10.9246 19.4447 11.0853 19.341 11.2927C19.2425 11.4949 19.1933 11.7385 19.1933 12.0237V17.1953H16.588V11.9537C16.588 11.5493 16.4766 11.2305 16.2536 10.9972C16.0307 10.7587 15.7378 10.6394 15.3749 10.6394C15.1312 10.6394 14.9134 10.6965 14.7216 10.8105C14.5349 10.9246 14.3872 11.0879 14.2783 11.3005C14.1746 11.5078 14.1228 11.7645 14.1228 12.0704V17.1953H11.4087ZM28.58 17.3508C28.0252 17.3508 27.5327 17.2575 27.1024 17.0709C26.672 16.8791 26.3324 16.5939 26.0836 16.2154C25.8399 15.837 25.7181 15.3626 25.7181 14.7923C25.7181 14.3153 25.8036 13.9135 25.9747 13.5868C26.1458 13.255 26.3791 12.988 26.6746 12.7858C26.9753 12.5785 27.3201 12.4203 27.7089 12.3114C28.0978 12.2026 28.5126 12.13 28.9532 12.0937C29.4458 12.047 29.8424 12.0004 30.1431 11.9537C30.4438 11.907 30.6616 11.8345 30.7964 11.736C30.9363 11.6375 31.0063 11.5001 31.0063 11.3238V11.2927C31.0063 11.0957 30.9597 10.9298 30.8664 10.795C30.773 10.655 30.6382 10.5487 30.462 10.4761C30.2909 10.3983 30.0783 10.3595 29.8243 10.3595C29.5754 10.3595 29.3551 10.3983 29.1632 10.4761C28.9714 10.5487 28.8133 10.6524 28.6888 10.7872C28.5696 10.922 28.4866 11.0801 28.44 11.2616L25.9747 10.9738C26.0836 10.4657 26.3039 10.0225 26.6357 9.64398C26.9676 9.26551 27.4031 8.96999 27.9423 8.75742C28.4866 8.54485 29.1269 8.43857 29.8631 8.43857C30.4075 8.43857 30.913 8.50338 31.3796 8.63299C31.8462 8.75742 32.2532 8.94406 32.6006 9.19292C32.9531 9.4366 33.2253 9.7373 33.4172 10.095C33.6142 10.4528 33.7127 10.8649 33.7127 11.3316V17.1953H31.1541V15.9821H31.0841C30.9286 16.2828 30.7316 16.5343 30.4931 16.7365C30.2546 16.9335 29.9772 17.0864 29.6609 17.1953C29.3447 17.299 28.9844 17.3508 28.58 17.3508ZM29.4043 15.5544C29.7102 15.5544 29.985 15.4948 30.2287 15.3755C30.4723 15.2511 30.6667 15.0826 30.8119 14.87C30.9571 14.6523 31.0297 14.4008 31.0297 14.1157V13.2913C30.9519 13.3328 30.856 13.3717 30.7419 13.408C30.6279 13.4391 30.5008 13.4702 30.3609 13.5013C30.2261 13.5324 30.0861 13.5609 29.9409 13.5868C29.8009 13.6076 29.6661 13.6283 29.5365 13.6491C29.2721 13.6854 29.0466 13.7476 28.8599 13.8357C28.6733 13.9238 28.5307 14.0379 28.4322 14.1779C28.3389 14.3127 28.2922 14.476 28.2922 14.6678C28.2922 14.8597 28.3389 15.023 28.4322 15.1578C28.5307 15.2874 28.6629 15.3859 28.8288 15.4533C28.9947 15.5207 29.1866 15.5544 29.4043 15.5544ZM35.4703 17.1953V8.55522H38.0988V10.1261H38.1844C38.3399 9.55584 38.5966 9.1333 38.9543 8.85852C39.312 8.58374 39.732 8.44635 40.2141 8.44635C40.3438 8.44635 40.476 8.45412 40.6108 8.46968C40.7456 8.48523 40.87 8.50856 40.984 8.53967V10.8805C40.8596 10.839 40.6911 10.8079 40.4786 10.7872C40.266 10.7664 40.0742 10.7561 39.9031 10.7561C39.5764 10.7561 39.2809 10.8287 39.0165 10.9738C38.7573 11.119 38.5525 11.3238 38.4021 11.5882C38.257 11.8474 38.1844 12.1533 38.1844 12.5059V17.1953H35.4703ZM47.1822 8.55522V10.5694H41.7151V8.55522H47.1822ZM42.8972 6.46325H45.6035V14.5201C45.6035 14.7534 45.6579 14.9271 45.7668 15.0411C45.8757 15.15 46.0546 15.2044 46.3034 15.2044C46.4019 15.2044 46.5367 15.1941 46.7078 15.1733C46.8789 15.1526 47.0007 15.1344 47.0733 15.1189L47.3922 17.1098C47.1018 17.1875 46.8141 17.2394 46.5289 17.2653C46.2438 17.2964 45.9716 17.312 45.7124 17.312C44.7843 17.312 44.0818 17.0994 43.6048 16.6743C43.1331 16.2439 42.8972 15.6166 42.8972 14.7923V6.46325Z" fill="#004B8D"/>
<defs>
<clipPath id="clip0_181_214">
<rect width="38.4427" height="18.7285" fill="white" transform="translate(47.781)"/>
</clipPath>
</defs>
</svg>

<svg xmlns="http://www.w3.org/2000/svg" width="87" height="22" fill="none" viewBox="0 0 87 22"><g clip-path="url(#a)"><path fill="#004a8f" d="M50.24 5.93h2.656a6.73 6.73 0 0 1 1.309-3.4c.28-.333.684-.536 1.115-.557a1.74 1.74 0 0 1 1.151.478 7 7 0 0 1 1.705 3.436h2.62l1.352 11.799-12.396.478.518-12.234zm3.094 0h4.49a6.63 6.63 0 0 0-1.554-3.16 1.24 1.24 0 0 0-.87-.399 1.23 1.23 0 0 0-.835.442c-.554.515-.993 1.559-1.23 3.117"/><path fill="#ed1c24" d="m61.26 5.053 11.51 2.08c-.72 4.037-1.554 8.755-2.065 11.597L59.21 16.65c.51-2.842 1.33-7.56 2.05-11.597"/><path fill="#004a8f" d="M81.92 6.293h-2.54a1.8 1.8 0 0 1 .475-.645c.194-.16.431-.268.676-.32.094.211.23.4.396.559l3.597-.957a3.05 3.05 0 0 1-.518-2.276L80.409 3.93c-.08.326-.08.674 0 1-.288.073-.561.21-.799.399q-.27.218-.431.522v-.725a.36.36 0 0 0-.36-.362h-3.597a.354.354 0 0 0-.353.355v1.21h-2.741a.903.903 0 0 0-.928.877v9.879c0 .53.424.95.95.964h9.77a.974.974 0 0 0 .928-.964V7.228a.974.974 0 0 0-.928-.935m-3.339.08H75.41V5.69a.226.226 0 0 1 .208-.239h2.727c.13 0 .23.109.237.24z"/><path fill="#fff" d="M55.688 12.915h-.72v1.276h.993c.64 0 .957-.196.957-.638a.56.56 0 0 0-.36-.558 4 4 0 0 0-.87-.08m.079-2.4h-.799v1.16h.914c.518 0 .72-.202.72-.601a.454.454 0 0 0-.274-.478 1.7 1.7 0 0 0-.597-.08zm.273 5.277h-3.33V8.914h3.251c1.828 0 2.741.558 2.741 1.718a1.63 1.63 0 0 1-.87 1.45c.338.08.633.275.834.557.202.298.31.646.317 1 0 1.45-.957 2.124-2.943 2.124zm6.632-3V8.915h2.223v4.116c-.014.305.05.61.194.885.21.26.547.398.878.355.72 0 1.029-.442 1.029-1.276V8.871h2.223v3.878a3.2 3.2 0 0 1-.791 2.406 4.49 4.49 0 0 1-4.921 0c-.561-.442-.835-1.24-.835-2.399zm14.892.478v2.522h-2.223v-2.479l-2.54-4.399h2.504l1.144 2.356 1.194-2.356h2.46z"/></g><path fill="#004b8d" d="M5.374 17.35q-1.455 0-2.535-.435-1.074-.442-1.672-1.33Q.575 14.7.552 13.37h2.644q.031.56.304.941.272.381.746.576t1.097.194a2.8 2.8 0 0 0 .987-.155q.42-.157.638-.436.226-.288.226-.653a.84.84 0 0 0-.203-.568q-.201-.24-.622-.42a6 6 0 0 0-1.065-.319l-1.213-.28q-1.525-.342-2.388-1.12-.855-.784-.855-2.092 0-1.08.583-1.882.584-.808 1.602-1.252 1.02-.45 2.333-.45 1.353 0 2.34.45.99.451 1.533 1.276.552.817.568 1.905H7.17q-.054-.645-.52-1.003-.46-.358-1.284-.358-.544 0-.925.148a1.2 1.2 0 0 0-.568.404.97.97 0 0 0-.187.584q0 .35.21.59.21.242.599.413.39.163.918.28l1.003.225q.856.187 1.516.498.662.303 1.112.731.459.42.693.98.233.552.233 1.244 0 1.104-.552 1.898-.545.793-1.571 1.213-1.027.42-2.473.42m6.035-.155v-8.64h2.504l.14 2.217h-.187q.21-.833.607-1.346.396-.52.933-.762.537-.24 1.12-.241.933 0 1.516.599.591.591.887 1.92h-.296q.195-.886.646-1.438.45-.56 1.05-.817a3.1 3.1 0 0 1 1.26-.264q.817 0 1.438.358.63.357.988 1.019.358.653.358 1.57v5.825h-2.707v-5.21q0-.66-.35-1.003-.342-.342-.878-.343-.382 0-.661.172a1.16 1.16 0 0 0-.436.482 1.66 1.66 0 0 0-.148.73v5.172h-2.605v-5.241q0-.607-.334-.957-.334-.357-.88-.358-.364 0-.652.172a1.2 1.2 0 0 0-.444.49q-.155.31-.155.77v5.124zm17.171.156q-.832 0-1.478-.28a2.3 2.3 0 0 1-1.018-.856q-.366-.567-.366-1.423 0-.715.257-1.205a2.14 2.14 0 0 1 .7-.801q.45-.311 1.034-.475a6.6 6.6 0 0 1 1.244-.217q.74-.07 1.19-.14.451-.07.653-.218a.48.48 0 0 0 .21-.412v-.031a.85.85 0 0 0-.14-.498.87.87 0 0 0-.404-.319 1.5 1.5 0 0 0-.638-.117q-.373 0-.66.117-.289.109-.475.311-.18.202-.249.475l-2.465-.288q.164-.762.66-1.33.499-.567 1.307-.887.817-.318 1.921-.318.816 0 1.517.194.7.186 1.22.56.53.366.817.902.296.537.296 1.237v5.863h-2.559v-1.213h-.07a2.5 2.5 0 0 1-.59.755q-.36.296-.833.458a3.5 3.5 0 0 1-1.081.156m.824-1.797q.459 0 .825-.178.365-.187.583-.506.218-.328.218-.754v-.825q-.117.062-.288.117a8 8 0 0 1-.381.093 9 9 0 0 1-.42.086q-.21.03-.404.062a2.3 2.3 0 0 0-.677.187q-.28.132-.428.342a.84.84 0 0 0-.14.49.84.84 0 0 0 .14.49.9.9 0 0 0 .397.295q.25.102.575.101m6.066 1.641v-8.64h2.63v1.571h.085q.234-.856.77-1.267a2 2 0 0 1 1.26-.413q.195 0 .397.024.202.023.373.07v2.34a2.4 2.4 0 0 0-.505-.093 6 6 0 0 0-.576-.03q-.49 0-.886.217-.39.218-.615.614-.218.39-.218.918v4.69zm11.712-8.64v2.014h-5.467V8.555zm-4.285-2.092h2.706v8.057q0 .35.164.521.164.163.536.163.148 0 .405-.03.256-.032.365-.055l.32 1.99q-.436.117-.864.156a8 8 0 0 1-.817.047q-1.392 0-2.107-.638-.708-.645-.708-1.882z"/><defs><clipPath id="a"><path fill="#fff" d="M47.781 0h38.443v18.729H47.781z"/></clipPath></defs></svg>
